X: 58
T:....Laddy, a gud tune. JaW.058
T:Because He Was A Bonnie Lad,aka. JaW.058
M:C|
Q:180
C:FRAGMENT.Because He Was A Bonnie Lad,aka
S:James Winder Ms, Lancashire, 1835-41
R:Reel
O:England
A:Wyresdale,Lancashire
N:Orphaned at the end of the page, showing that my photocopies are not in
N:the correct order. CGP
H:1/8
Z:vmp.Chris Partington, Aug 2004
K:D
"No key in MS"dfec|B2B2|!
c>BAg|faec|d>fec|A2A2:|!
|:cAeA|fAeA|cAec|B2B2|!
cAeA|fAec|dfec|A2A2:|]
